frontend/src/shared/assets/icons/search.svg

<svg width="20" height="20" viewBox="0 0 20 20" fill="none" xmlns="http://www.w3.org/2000/svg">
<path d="M17.2278 16.075L14.3995 13.25C15.312 12.0854 15.8072 10.6472 15.8054 9.16667C15.8054 7.84813 15.4151 6.5592 14.6838 5.46287C13.9526 4.36654 12.9132 3.51206 11.6972 3.00747C10.4812 2.50289 9.14308 2.37087 7.85216 2.6281C6.56124 2.88534 5.37545 3.52027 4.44475 4.45262C3.51405 5.38497 2.88023 6.57286 2.62345 7.86607C2.36667 9.15927 2.49846 10.4997 3.00215 11.7179C3.50584 12.9361 4.35882 13.9773 5.45321 14.7098C6.5476 15.4423 7.83425 15.8333 9.15047 15.8333C10.6284 15.8352 12.064 15.3392 13.2266 14.425L16.0466 17.2583C16.1239 17.3364 16.2159 17.3984 16.3173 17.4407C16.4187 17.4831 16.5274 17.5048 16.6372 17.5048C16.747 17.5048 16.8558 17.4831 16.9571 17.4407C17.0585 17.3984 17.1505 17.3364 17.2278 17.2583C17.3058 17.1809 17.3677 17.0887 17.4099 16.9872C17.4522 16.8856 17.4739 16.7767 17.4739 16.6667C17.4739 16.5567 17.4522 16.4477 17.4099 16.3462C17.3677 16.2446 17.3058 16.1525 17.2278 16.075ZM4.1593 9.16667C4.1593 8.17776 4.45203 7.21106 5.00046 6.38882C5.5489 5.56657 6.32841 4.92571 7.24043 4.54727C8.15245 4.16883 9.156 4.06982 10.1242 4.26274C11.0924 4.45567 11.9817 4.93187 12.6798 5.63114C13.3778 6.3304 13.8531 7.22131 14.0457 8.19122C14.2383 9.16112 14.1395 10.1665 13.7617 11.0801C13.3839 11.9937 12.7442 12.7746 11.9234 13.324C11.1026 13.8734 10.1376 14.1667 9.15047 14.1667C7.82673 14.1667 6.5572 13.6399 5.62118 12.7022C4.68515 11.7645 4.1593 10.4928 4.1593 9.16667Z" fill="#1E1E1E"/>
</svg>

<svg xmlns="http://www.w3.org/2000/svg" width="20" height="20" fill="none"><path fill="#1E1E1E" d="m17.228 16.075-2.829-2.825a6.608 6.608 0 0 0 1.406-4.083c0-1.319-.39-2.608-1.121-3.704a6.644 6.644 0 0 0-10.239-1.01 6.67 6.67 0 0 0-1.443 7.265 6.664 6.664 0 0 0 2.451 2.992 6.647 6.647 0 0 0 3.697 1.123 6.58 6.58 0 0 0 4.077-1.408l2.82 2.833a.831.831 0 0 0 1.18 0 .832.832 0 0 0 0-1.183ZM4.159 9.167a5.006 5.006 0 0 1 3.081-4.62 4.983 4.983 0 0 1 5.44 1.084 5.003 5.003 0 0 1-3.53 8.536 4.987 4.987 0 0 1-3.529-1.465A5.004 5.004 0 0 1 4.16 9.167Z"/></svg>
